X: 39680
T: Tenpenny Bit, The
R: jig
M: 6/8
K: Adorian
|:e|eAA eAA|BAB GBd|eAA eAA|def gfg|
eAA eAA|BAB GBd|edB gdB|BAG A2:|
|:e|eaa aga|bge gdB|eaa aga|bge g2e|
eaa aga|bge gdB|def gdB|BAG A2:|

